public/bg-meta.svg

<svg fill="none" height="2915" viewBox="0 0 1440 2915" width="1440" xmlns="http://www.w3.org/2000/svg" xmlns:xlink="http://www.w3.org/1999/xlink"><clipPath id="a"><path d="m0 0h1440v3976h-1440z"/></clipPath><g clip-path="url(#a)"><g fill="#d5dde4"><path d="m-427 4148.2c0 552.73 455.638 1002.56 1015.5 1002.56 559.86 0 1015.5-449.83 1015.5-1002.56v-981.63c0-552.73-455.64-1002.57-1015.5-1002.57-559.862 0-1015.5 449.84-1015.5 1002.57z" opacity=".3"/><path d="m-219 3793.38c0 392.33 376.337 711.62 838.759 711.62 462.421 0 838.761-319.29 838.761-711.62v-696.76c0-392.33-376.34-711.62-838.761-711.62-462.422 0-838.759 319.29-838.759 711.62z" opacity=".15"/><path d="m-896 642.663c0 677.107 558.162 1228.157 1244 1228.157 685.84 0 1244-551.05 1244-1228.157v-1202.503c0-677.11-558.16-1228.16-1244-1228.16-685.838 0-1244 551.05-1244 1228.16z" opacity=".1"/></g><path d="m-594-183.337c0 677.106 558.162 1228.157 1244 1228.157 685.84 0 1244-551.051 1244-1228.157v-1202.503c0-677.11-558.16-1228.16-1244-1228.16-685.838 0-1244 551.05-1244 1228.16z" fill="#1c1f32"/></g></svg>

<svg width="1440" height="2915" viewBox="0 0 1440 2915" fill="none"
    xmlns="http://www.w3.org/2000/svg">
    <g clip-path="url(#clip0_828_2228)">
        <path opacity="0.3"
            d="M-427 4148.2C-427 4700.93 28.638 5150.76 588.5 5150.76C1148.36 5150.76 1604 4700.93 1604 4148.2V3166.57C1604 2613.84 1148.36 2164 588.5 2164C28.638 2164 -427 2613.84 -427 3166.57V4148.2Z"
            fill="#D5DDE4" />
        <path opacity="0.15"
            d="M-219 3793.38C-219 4185.71 157.337 4505 619.759 4505C1082.18 4505 1458.52 4185.71 1458.52 3793.38V3096.62C1458.52 2704.29 1082.18 2385 619.759 2385C157.337 2385 -219 2704.29 -219 3096.62V3793.38Z"
            fill="#D5DDE4" />
        <path opacity="0.1"
            d="M-896 642.663C-896 1319.77 -337.838 1870.82 348 1870.82C1033.84 1870.82 1592 1319.77 1592 642.663V-559.84C1592 -1236.95 1033.84 -1788 348 -1788C-337.838 -1788 -896 -1236.95 -896 -559.84V642.663Z"
            fill="#D5DDE4" />
        <path
            d="M-594 -183.337C-594 493.769 -35.838 1044.82 650 1044.82C1335.84 1044.82 1894 493.769 1894 -183.337V-1385.84C1894 -2062.95 1335.84 -2614 650 -2614C-35.838 -2614 -594 -2062.95 -594 -1385.84V-183.337Z"
            fill="#1C1F32" />
    </g>
    <defs>
        <clipPath id="clip0_828_2228">
            <rect width="1440" height="3976" fill="white" />
        </clipPath>
    </defs>
</svg>
